X: 1
T: the Tweeddale Club
C: Athole Colln
Z: T. Traub 9-21-1995
M: 4/4
L: 1/8
K: C
|: c |\
"C"G<E c>G "F"A>G E<c | "C"G<E c>E "G"d<D D>c |\
"C"G<E c>G "F"A>B c>A | "C"G<c E<c "G"D2 "C"C :|
e/f/ |\
"C"g<c g>e c>g e<g | "Dm"a<d a>f "G"d>e f<a |\
"C"g<c g>e "Am"c>g e>g | "F"(3faf "C"(3ege "G"d2 "C"c |]
e/f/ |\
"C"g<c g>e c>g e<g | "Dm"a<d a>f "G"d>e f<a |\
"C"g<c "F"a>f "C"e>d c>G | "F"A<c "C"G>E "G"D2 "C"C |]
